docs/img/network-tw.svg

<svg width="22" height="19" viewBox="0 0 22 19" fill="none" xmlns="http://www.w3.org/2000/svg">
<path fill-rule="evenodd" clip-rule="evenodd" d="M1.51239 8.17938C7.41795 5.49804 11.3559 3.73034 13.3263 2.87627C18.9521 0.437736 20.1211 0.0141366 20.883 0.000149138C21.0506 -0.00292726 21.4253 0.0403535 21.668 0.245594C21.873 0.418895 21.9294 0.653001 21.9563 0.817309C21.9833 0.981618 22.0169 1.35592 21.9902 1.64838C21.6854 4.98655 20.3662 13.0874 19.6951 16.8262C19.4111 18.4082 18.852 18.9387 18.3107 18.9906C17.1343 19.1034 16.2409 18.1804 15.1015 17.402C13.3186 16.184 12.3113 15.4259 10.5807 14.2373C8.58058 12.8638 9.87715 12.1089 11.017 10.8751C11.3153 10.5522 16.4986 5.63905 16.5989 5.19335C16.6115 5.13761 16.6231 4.92982 16.5046 4.82011C16.3862 4.71039 16.2114 4.74791 16.0852 4.77775C15.9064 4.82004 13.0581 6.78196 7.54035 10.6635C6.73187 11.242 5.99958 11.5239 5.34347 11.5091C4.62016 11.4929 3.2288 11.0829 2.19447 10.7326C0.925826 10.3028 -0.0824703 10.0756 0.00532971 9.34573C0.0510613 8.96558 0.553413 8.57679 1.51239 8.17938Z" fill="black" fill-opacity="0.26"/>
</svg>

<svg width="22" height="19" viewBox="0 0 22 19" fill="none" xmlns="http://www.w3.org/2000/svg"><path fill-rule="evenodd" clip-rule="evenodd" d="M1.512 8.18c5.906-2.682 9.844-4.45 11.814-5.304C18.952.438 20.121.014 20.883 0c.168-.003.542.04.785.246.205.173.261.407.288.571.027.165.06.539.034.831-.305 3.339-1.624 11.44-2.295 15.178-.284 1.582-.843 2.113-1.384 2.165-1.177.112-2.07-.81-3.21-1.589-1.782-1.218-2.79-1.976-4.52-3.165-2-1.373-.704-2.128.436-3.362.298-.323 5.482-5.236 5.582-5.682.012-.055.024-.263-.094-.373-.119-.11-.294-.072-.42-.042-.179.042-3.027 2.004-8.545 5.886-.808.578-1.54.86-2.197.845-.723-.016-2.114-.426-3.149-.776-1.268-.43-2.276-.657-2.189-1.387.046-.38.548-.77 1.507-1.167z" fill="#000" fill-opacity=".26"/></svg>
